src/24x24/places/folder-gruvbox-material-aqua-photo.svg

<?xml version="1.0" encoding="UTF-8"?>
<svg width="24" height="24" version="1" xmlns="http://www.w3.org/2000/svg">
 <rect x="2" y="9.5" width="20" height="12" rx="1" ry="1" opacity=".2"/>
 <path d="m2 17c0 0.554 0.446 1 1 1h18c0.554 0 1-0.446 1-1v-11c0-0.554-0.446-1-1-1h-9c-1.5 0-2-2-3.5-2h-5.5c-0.554 0-1 0.446-1 1" fill="#4c7a5d"/>
 <rect x="2" y="8.5" width="20" height="12" rx="1" ry="1" opacity=".2"/>
 <rect x="4" y="7" width="16" height="8" rx="1" ry="1" fill="#DBE3C7"/>
 <rect x="2" y="9" width="20" height="12" rx="1" ry="1" fill="#89b482"/>
 <path d="m3 3c-0.554 0-1 0.446-1 1v0.5c0-0.554 0.446-1 1-1h5.5c1.5 0 2 2 3.5 2h9c0.554 0 1 0.446 1 1v-0.5c0-0.554-0.446-1-1-1h-9c-1.5 0-2-2-3.5-2z" fill="#DBE3C7" opacity=".1"/>
 <path d="m10.5 11-0.5 1h-0.75c-0.6925 0-1.25 0.557-1.25 1.25v3.5c0 0.692 0.5575 1.25 1.25 1.25h5.5c0.693 0 1.25-0.558 1.25-1.25v-3.5c0-0.693-0.557-1.25-1.25-1.25h-0.75l-0.5-1h-3zm1.5 2a2 2 0 0 1 2 2 2 2 0 0 1-2 2 2 2 0 0 1-2-2 2 2 0 0 1 2-2z" fill="#414A42"/>
</svg>

<svg xmlns="http://www.w3.org/2000/svg" width="24" height="24" version="1">
 <rect style="opacity:0.2" width="20" height="12" x="2" y="9.5" rx="1" ry="1"/>
 <path style="fill:#4c7a5d" d="M 2,17 C 2,17.554 2.446,18 3,18 H 21 C 21.554,18 22,17.554 22,17 V 6 C 22,5.446 21.554,5 21,5 H 12 C 10.5,5 10,3 8.5,3 H 3 C 2.446,3 2,3.446 2,4"/>
 <rect style="opacity:0.2" width="20" height="12" x="2" y="8.5" rx="1" ry="1"/>
 <rect style="fill:#DBE3C7" width="16" height="8" x="4" y="7" rx="1" ry="1"/>
 <rect style="fill:#89b482" width="20" height="12" x="2" y="9" rx="1" ry="1"/>
 <path style="opacity:0.1;fill:#DBE3C7" d="M 3,3 C 2.446,3 2,3.446 2,4 V 4.5 C 2,3.946 2.446,3.5 3,3.5 H 8.5 C 10,3.5 10.5,5.5 12,5.5 H 21 C 21.554,5.5 22,5.946 22,6.5 V 6 C 22,5.446 21.554,5 21,5 H 12 C 10.5,5 10,3 8.5,3 Z"/>
 <path style="fill:#414A42" d="M 10.5 11 L 10 12 L 9.25 12 C 8.5575 12 8 12.557 8 13.25 L 8 16.75 C 8 17.442 8.5575 18 9.25 18 L 14.75 18 C 15.443 18 16 17.442 16 16.75 L 16 13.25 C 16 12.557 15.443 12 14.75 12 L 14 12 L 13.5 11 L 10.5 11 z M 12 13 A 2 2 0 0 1 14 15 A 2 2 0 0 1 12 17 A 2 2 0 0 1 10 15 A 2 2 0 0 1 12 13 z"/>
</svg>
